img/icons/svg/icon__phone.svg

<svg width="48" height="48" viewBox="0 0 48 48" fill="none" xmlns="http://www.w3.org/2000/svg">
<path d="M37.0251 30.5507L46.7404 37.0298C47.9969 37.8651 48.3737 39.5412 47.5956 40.834L45.1527 44.8942C44.4028 46.1711 43.1872 47.1077 41.7613 47.5074C40.5358 47.8387 39.2713 48.0039 38.0018 47.9985C32.4858 47.9985 24.4606 45.0997 13.6806 34.3205C0.12895 20.7673 -0.971604 11.5678 0.491335 6.23744C0.891494 4.81181 1.82801 3.59642 3.10451 2.84597L7.16712 0.405554C8.45965 -0.371425 10.1347 0.00558174 10.9696 1.26146L17.4487 10.9768C18.2633 12.2101 17.9946 13.8623 16.8311 14.7739L13.1949 17.603C12.7152 17.9696 12.5787 18.6336 12.875 19.1596L13.1702 19.6979L13.1702 19.698C14.1429 21.4792 15.3563 23.7014 19.83 28.1767C24.3038 32.652 26.5242 33.863 28.3087 34.8357L28.8471 35.1324C29.3732 35.4247 30.0343 35.2856 30.398 34.806L33.228 31.1674C34.1395 30.0035 35.7922 29.7351 37.0251 30.5507Z" fill="white"/>
<path d="M42.3965 21.6021C42.3965 22.0439 42.0384 22.402 41.5966 22.402C41.1549 22.402 40.7968 22.0439 40.7968 21.6021C40.7883 14.0957 34.7053 8.01246 27.1988 8.00412C26.757 8.00412 26.3989 7.64605 26.3989 7.20427C26.3989 6.76249 26.757 6.40442 27.1988 6.40442C35.5884 6.41361 42.3872 13.2125 42.3965 21.6021ZM42.3965 21.6021L41.5966 21.603L41.3965 21.6032C41.3965 21.6029 41.3965 21.6025 41.3965 21.6021H41.5966H41.7968H42.3965Z" stroke="white" stroke-width="2"/>
<path d="M37.5972 21.6021C37.5972 22.0439 37.2391 22.402 36.7973 22.402C36.3557 22.402 35.9975 22.0439 35.9975 21.6021C35.9918 16.7451 32.0558 12.8091 27.1988 12.8034C26.757 12.8034 26.3989 12.4453 26.3989 12.0035C26.3989 11.5617 26.757 11.2037 27.1988 11.2037C32.9389 11.2102 37.5905 15.8619 37.5972 21.6021ZM37.5972 21.6021L36.7973 21.603L36.5972 21.6033C36.5972 21.6029 36.5972 21.6025 36.5972 21.6021H36.7973H36.9975H37.5972Z" stroke="white" stroke-width="2"/>
<path d="M32.7979 21.6021C32.7979 22.0439 32.4397 22.402 31.9981 22.402C31.5564 22.402 31.1982 22.0439 31.1982 21.6021C31.1955 19.3944 29.4064 17.6053 27.1988 17.6027C26.757 17.6027 26.3989 17.2446 26.3989 16.8028C26.3989 16.3611 26.757 16.003 27.1988 16.003C30.2896 16.0065 32.7943 18.5113 32.7979 21.6021ZM32.7979 21.6021L31.9981 21.6031L31.7979 21.6033C31.7979 21.6029 31.7979 21.6025 31.7979 21.6021H31.9981H32.1982H32.7979Z" stroke="white" stroke-width="2"/>
</svg>

<svg width="48" height="48" viewBox="0 0 48 48" fill="none" xmlns="http://www.w3.org/2000/svg"><path d="M37.025 30.55l9.715 6.48a2.821 2.821 0 01.856 3.804l-2.443 4.06a5.725 5.725 0 01-3.392 2.613c-1.225.332-2.49.497-3.76.492-5.515 0-13.54-2.9-24.32-13.678C.129 20.767-.972 11.568.49 6.237a5.73 5.73 0 012.614-3.391L7.167.406a2.82 2.82 0 013.803.855l6.479 9.716a2.837 2.837 0 01-.618 3.797l-3.636 2.829a1.211 1.211 0 00-.32 1.557l.295.538c.973 1.781 2.186 4.003 6.66 8.479 4.474 4.475 6.694 5.686 8.479 6.659l.538.296a1.21 1.21 0 001.551-.326l2.83-3.639a2.836 2.836 0 013.797-.616z" fill="#fff"/><path d="M42.397 21.602a.8.8 0 11-1.6 0c-.009-7.506-6.092-13.59-13.598-13.598a.8.8 0 110-1.6c8.39.01 15.188 6.809 15.198 15.198zm0 0l-.8.001h-.2s0 0 0 0h1z" stroke="#fff" stroke-width="2"/><path d="M37.597 21.602a.8.8 0 11-1.6 0 8.81 8.81 0 00-8.798-8.799.8.8 0 110-1.6c5.74.007 10.391 4.659 10.398 10.4zm0 0l-.8.001h-.2s0 0 0 0h1z" stroke="#fff" stroke-width="2"/><path d="M32.798 21.602a.8.8 0 01-1.6 0 4.004 4.004 0 00-4-4 .8.8 0 110-1.599 5.606 5.606 0 015.6 5.6zm0 0l-.8.001h-.2s0 0 0 0h1z" stroke="#fff" stroke-width="2"/></svg>
